SVG/sitemap.svg

<?xml version="1.0" encoding="utf-8"?>
<!-- Generated by IcoMoon.io -->
<!DOCTYPE svg PUBLIC "-//W3C//DTD SVG 1.1//EN" "http://www.w3.org/Graphics/SVG/1.1/DTD/svg11.dtd">
<svg version="1.1" xmlns="http://www.w3.org/2000/svg" xmlns:xlink="http://www.w3.org/1999/xlink" width="14" height="14" viewBox="0 0 14 14">
<path fill="#444444" d="M14 9.75v2.5q0 0.312-0.219 0.531t-0.531 0.219h-2.5q-0.312 0-0.531-0.219t-0.219-0.531v-2.5q0-0.312 0.219-0.531t0.531-0.219h0.75v-1.5h-4v1.5h0.75q0.312 0 0.531 0.219t0.219 0.531v2.5q0 0.312-0.219 0.531t-0.531 0.219h-2.5q-0.312 0-0.531-0.219t-0.219-0.531v-2.5q0-0.312 0.219-0.531t0.531-0.219h0.75v-1.5h-4v1.5h0.75q0.312 0 0.531 0.219t0.219 0.531v2.5q0 0.312-0.219 0.531t-0.531 0.219h-2.5q-0.312 0-0.531-0.219t-0.219-0.531v-2.5q0-0.312 0.219-0.531t0.531-0.219h0.75v-1.5q0-0.406 0.297-0.703t0.703-0.297h4v-1.5h-0.75q-0.312 0-0.531-0.219t-0.219-0.531v-2.5q0-0.312 0.219-0.531t0.531-0.219h2.5q0.312 0 0.531 0.219t0.219 0.531v2.5q0 0.312-0.219 0.531t-0.531 0.219h-0.75v1.5h4q0.406 0 0.703 0.297t0.297 0.703v1.5h0.75q0.312 0 0.531 0.219t0.219 0.531z"></path>
</svg>

<svg xmlns="http://www.w3.org/2000/svg" viewBox="0 0 14 14"><path d="M14 9.75v2.5q0 .312-.22.53t-.53.22h-2.5q-.312 0-.53-.22t-.22-.53v-2.5q0-.312.22-.53t.53-.22h.75V7.5h-4V9h.75q.312 0 .53.22t.22.53v2.5q0 .312-.22.53t-.53.22h-2.5q-.312 0-.53-.22T5 12.25v-2.5q0-.312.22-.53T5.75 9h.75V7.5h-4V9h.75q.312 0 .53.22t.22.53v2.5q0 .312-.22.53t-.53.22H.75q-.312 0-.53-.22T0 12.25v-2.5q0-.312.22-.53T.75 9h.75V7.5q0-.406.297-.703T2.5 6.5h4V5h-.75q-.312 0-.53-.22T5 4.25v-2.5q0-.312.22-.53T5.75 1h2.5q.312 0 .53.22t.22.53v2.5q0 .312-.22.53T8.25 5H7.5v1.5h4q.406 0 .703.297t.297.703V9h.75q.312 0 .53.22t.22.53z" /></svg>
